X:139
T:Opera Hat,The TS.139
M:6/8
L:1/8
Q:3/8=120
S:Thomas Sands’ MS,1810,Lincolnshire
R:jig
O:England;Lincolnshire
Z:vmp.Ruairidh Greig, 2011
K:F
c|f2f fga|c2cc2c|d2fe2g|f2a gec|
f2f fga|c2cc2c|d2fe2g|f3f2:|
a|g2g gab|a2gf2a|g2g gab|a3f2z|
“2 crotchets in MS”g2g gab|a2gf2a|{a}g2f{f}e2d|{d}c2B{B}A2G|
A3{c}BAB|c2cc2c|d2fe2g|f2ag2b|
A3BAB|c2cc2c|d2fe2g|f3f2|]

